_assets/images/gallery/s01e03-03.svg

<svg xmlns="http://www.w3.org/2000/svg" width="500" height="550" viewBox="0 0 500 550"><defs><pattern id="a" width="8.96" height="8.96" patternTransform="translate(-143.22 -157.68)" patternUnits="userSpaceOnUse" viewBox="0 0 8.96 8.96"><path fill="none" d="M0 0h8.96v8.96H0z"/><path fill="#bababa" d="M0 0h8.96v8.96H0z"/><path fill="#636363" opacity=".5" d="M8.01 8.01H.95V.95l7.06 7.06z"/></pattern></defs><path d="M365.91 84.57s-1.72 402.39-5 404.58-151.41 0-167.06-3.28-53.14 5-57.87 4.16-5.46-10.9-3.64-18.54 1.37-386.92 1.37-386.92z" fill="#fff" stroke="#262521" stroke-linecap="round" stroke-linejoin="round" stroke-width="3"/><path d="M372.14 295.65q-.27 61.74-.62 123.46c-.81 9-2.68 16.41-3.55 25.45-1 10.07 1.34 17-1.5 25.63-.59 1.77-2 1.67-3.35 1.43-44.59-7.73-101.66-5.71-146.65-2.92-24.6.58-58.62-1.67-83 2.09-5.23.6-5.68.28-6.62-4.82-1.35-11.26 1.94-18.53.53-29.31-6.15-46.82-1.39-94.38-3.6-141.53-1.42 2.82-2.94 5.6-4.29 8.45-2.37 10.68-17.5 9.3-11.81 16.19 11.11 8 6.41 21.38 5.15 32.56-.25 3.15-1.35 6.27-.37 9.58.51 8.43-3.19 16.94-4.38 25.31-1.5 8-10.42 41.27-11.86 49.29-.57 3.17-.61 3-3.74 2.05-12.38-3.52-26.09-4.38-38.6-1.18-1.39.34-2.11 0-2.41-1.47-2-7.76.82-16.67-5.49-22.43a6.66 6.66 0 01-1.33-3.22c-2.23-11-6.07-22.12-5.72-33.31-1.91-63 2.6-126.93 26.19-186 13.61-35.44 24.56-73.32 48.07-103.67 27.32-18.2 60-23.76 90.46-34.78a3.13 3.13 0 012.72.43c5 5.55 11.46 8.41 18.56 9.66 19.19 2.43 41.29 5.56 58.65-4.87 2.85-1.27 4.2-6.53 7.87-5 29.12 10.5 61 14.41 87.44 31.59 15.94 14.59 21.63 38 30.45 57.2 27.81 67.49 58 137.4 51.05 212.08-1.19 18.66-.23 37.45-3.28 56-.49 4.66-5.21 7.09-5.56 11.78-1.22 5.28-2.08 10.65-2.91 16-.4 2.6-.41 2.82-3.08 2.32-12.48-2.65-25.26-5.48-37.8-1.58-8.34-.14-8.13-15.55-11.44-21.4-6.28-7.37-3.61-9-5.33-17.63-.9-9.7-4.68-20.27.79-29.27 2-3.53 1.86-7 .51-10.65-4.9-11.29-7.4-23.42-10.45-35.3-1.07-4.3-1.31-8.49 1.61-12.33 1.51-7.24-10.43-8.68-10.93-15.93z" fill="#bababa" stroke="#262521" stroke-linecap="round" stroke-linejoin="round" stroke-width="3"/><path d="M409.37 141.51c-8.82-19.21-14.51-42.61-30.45-57.2-22.86-14.88-49.87-19.81-75.61-27.68-4 3.8-1.23 53.64-54.81 53.64-50.05 0-54.42-44.5-54.95-54.31-26.94 8.66-56.55 15.45-80.33 31.32C89.71 117.63 78.76 155.51 65.15 191 41.56 250 37.05 313.94 39 377c-.35 11.19 3.49 22.28 5.72 33.31a6.66 6.66 0 001.28 3.17c6.31 5.76 24.77-10.48 54.72 4.08 1.44-8 5.88-22.37 7.38-30.34 1.19-8.37 4.89-16.88 4.38-25.31-1-3.31.12-6.43.37-9.58 1.26-11.18 6-24.61-5.15-32.56-5.69-6.88 9.44-5.51 11.81-16.19 1.35-2.85 2.87-5.63 4.29-8.45 2.21 47.15-2.31 97.12 3.84 143.94 63.85-6.91 229.69-3.92 240.32 5.49.87-9 2.74-16.47 3.55-25.45q.3-61.71.62-123.46l.41-.08c.5 7.25 12.44 8.69 10.93 15.93-2.92 3.84-2.68 8-1.61 12.33 3.05 11.88 5.55 24 10.45 35.3 1.35 3.61 1.5 7.12-.51 10.65-5.47 9-1.69 19.57-.79 29.27 1.72 8.67-.95 10.26 5.33 17.63 5.83-.6 39.86-13.6 55.23 4.65.35-4.69 5.07-7.12 5.56-11.78 3.05-18.51 2.09-37.3 3.28-56 6.96-74.64-23.23-144.55-51.04-212.04z" fill="url(#a)"/><path d="M372.14 295.65q-.27 61.74-.62 123.46c-.81 9-2.68 16.41-3.55 25.45-1 10.07 1.34 17-1.5 25.63-.59 1.77-2 1.67-3.35 1.43-44.59-7.73-101.66-5.71-146.65-2.92-24.6.58-58.62-1.67-83 2.09-5.23.6-5.68.28-6.62-4.82-1.35-11.26 1.94-18.53.53-29.31-6.15-46.82-1.39-94.38-3.6-141.53-1.42 2.82-2.94 5.6-4.29 8.45-2.37 10.68-17.5 9.3-11.81 16.19 11.11 8 6.41 21.38 5.15 32.56-.25 3.15-1.35 6.27-.37 9.58.51 8.43-3.19 16.94-4.38 25.31-1.5 8-10.42 41.27-11.86 49.29-.57 3.17-.61 3-3.74 2.05-12.38-3.52-26.09-4.38-38.6-1.18-1.39.34-2.11 0-2.41-1.47-2-7.76.82-16.67-5.49-22.43a6.66 6.66 0 01-1.33-3.22c-2.23-11-6.07-22.12-5.72-33.31-1.91-63 2.6-126.93 26.19-186 13.61-35.44 24.56-73.32 48.07-103.67 27.32-18.2 60-23.76 90.46-34.78a3.13 3.13 0 012.72.43c5 5.55 11.46 8.41 18.56 9.66 19.19 2.43 41.29 5.56 58.65-4.87 2.85-1.27 4.2-6.53 7.87-5 29.12 10.5 61 14.41 87.44 31.59 15.94 14.59 21.63 38 30.45 57.2 27.81 67.49 58 137.4 51.05 212.08-1.19 18.66-.23 37.45-3.28 56-.49 4.66-5.21 7.09-5.56 11.78-1.22 5.28-2.08 10.65-2.91 16-.4 2.6-.41 2.82-3.08 2.32-12.48-2.65-25.26-5.48-37.8-1.58-8.34-.14-8.13-15.55-11.44-21.4-6.28-7.37-3.61-9-5.33-17.63-.9-9.7-4.68-20.27.79-29.27 2-3.53 1.86-7 .51-10.65-4.9-11.29-7.4-23.42-10.45-35.3-1.07-4.3-1.31-8.49 1.61-12.33 1.51-7.24-10.43-8.68-10.93-15.93z" fill="none" stroke="#262521" stroke-linecap="round" stroke-linejoin="round" stroke-width="3"/><path d="M204.41 52.37s4 48.55 43.68 46.73 42.84-45.41 42.84-45.41l-1.61-.69S286 84.08 247.69 85.89 207 53 207 53" fill="#fff" stroke="#262521" stroke-linecap="round" stroke-linejoin="round" stroke-width="3"/><path d="M121.8 184.94s2.11 28.62 0 44.25.11 29.69.11 32.87 1.9 33.07 1.9 33.07m247.52-102.38s-1.25 73.86.81 102.9" fill="none" stroke="#262521" stroke-linecap="round" stroke-linejoin="round" stroke-width="3"/><path d="M193.55 60.08c2.77 14.3 8.71 50.26 54.25 50.26s52.09-37.75 54.2-49.93m-57.5 41.85v8.01m2-8.01v8.01m2-8.01v8.01m2-8.01v8.01m6.08-8.47l1.84 7.8m.1-8.26l1.85 7.8m.1-8.26l1.85 7.8m.1-8.26l1.84 7.79m4.99-10.31l4.1 6.88m-2.39-7.9l4.11 6.87m-2.39-7.9l4.11 6.88m-2.39-7.9l4.11 6.87m1.75-11.56l5.97 5.33m-4.64-6.82l5.97 5.33m-4.64-6.82l5.98 5.33m-4.65-6.83l5.98 5.34m-2.56-11.17l7.32 3.25M288.48 78l7.32 3.25m-6.51-5.07l7.32 3.24m-6.51-5.07l7.32 3.24m-5.26-10.43l7.81 1.78m-7.36-3.73l7.81 1.78m-7.37-3.73l7.81 1.78m-7.36-3.73l7.81 1.78m-62.03 38.71l-1.85 7.8m-.1-8.26l-1.84 7.8m-.1-8.26l-1.85 7.8m-.1-8.26l-1.85 7.79m-4.98-10.31l-4.11 6.88m2.39-7.9l-4.11 6.87m2.4-7.9l-4.11 6.88m2.39-7.9l-4.11 6.87m-1.75-11.56l-5.98 5.33m4.65-6.82l-5.98 5.33m4.65-6.82l-5.98 5.33m4.65-6.83L205.63 91m2.56-11.17l-7.32 3.25m6.51-5.08l-7.32 3.25m6.51-5.07l-7.32 3.24m6.51-5.07l-7.32 3.24m5.25-10.43l-7.81 1.78m7.37-3.73l-7.81 1.78m7.36-3.73l-7.81 1.78m7.37-3.73l-7.81 1.78" fill="none" stroke="#636363" stroke-linecap="round" stroke-linejoin="round"/><path fill="none" stroke="#8e8e8e" stroke-linecap="round" stroke-linejoin="round" stroke-width="4" d="M73.89 414.47v16.03m-9.65-16.02l.99 16.01m19.15-16l-1.48 15.99m11.59-13.83l-4.14 15.61m-35-16.4l2.04 15.94m367.52-17.37l-.09 16.34m-10.02-16.3l1.81 16.26m18.78-16.28l-1.57 16.29M445 416.61l-3.73 15.92m-36.3-16.58l3.73 15.99m-161.39 9.65v20.46m11.06-20.46v20.46m11.06-20.46v20.46m11.06-20.46v20.46m11.07-20.46v20.46m11.06-20.46v20.46m11.06-20.46v20.46m11.06-20.46v20.46m-154.87-20.46v21.96m11.06-21.96v21.46M192 441.59v21.46m11.06-20.46v20.46m-65.95-19.44l1.15 20.43m9.79-21.93l.89 21.42m9.87-21.94v21.96m55.31-20.96v20.46m11.06-21.46v20.46m11.06-20.46v20.46m99.93-19.45l-.73 20.45m12.04-19.44l-1.23 20.42m12.09-19.43l-.82 20.44"/><path d="M172.34 58.38s.66 78.72 76.16 78.72 65.08-81.36 65.08-81.36l45.85 13.2s15.37 386.24 12.09 388.43-252.45 4-250.63-3.67 12.56-379.34 12.56-379.34z" fill="#377566" stroke="#262521" stroke-linecap="round" stroke-linejoin="round" stroke-width="3"/><path d="M136.28 354.79s106.34 13.63 220.82 0m-220.82 9.67s106.34 13.63 220.82 0m-108.68-3.62l.5 83.22" fill="none" stroke="#215145" stroke-linecap="round" stroke-linejoin="round"/><path stroke-width="3" stroke="#262521" stroke-linecap="round" stroke-linejoin="round" fill="#ffc802" d="M274.4 167.32h57.09v37.17H274.4z"/><path stroke-width="3" stroke="#262521" stroke-linecap="round" stroke-linejoin="round" fill="#fff" d="M274.4 185.59h57.09v10.13H274.4z"/></svg>

<svg xmlns="http://www.w3.org/2000/svg" width="500" height="550" viewBox="0 0 500 550"><defs><pattern id="a" width="8.96" height="8.96" patternTransform="translate(-143.22 -157.68)" patternUnits="userSpaceOnUse" viewBox="0 0 8.96 8.96"><path fill="none" d="M0 0h8.96v8.96H0z"/><path fill="#bababa" d="M0 0h8.96v8.96H0z"/><path fill="#636363" opacity=".5" d="M8.01 8.01H.95V.95l7.06 7.06z"/></pattern></defs><path d="M365.91 84.57s-1.72 402.39-5 404.58-151.41 0-167.06-3.28-53.14 5-57.87 4.16-5.46-10.9-3.64-18.54 1.37-386.92 1.37-386.92z" fill="#fff" stroke="#262521" stroke-linecap="round" stroke-linejoin="round" stroke-width="3"/><path d="M372.14 295.65q-.27 61.74-.62 123.46c-.81 9-2.68 16.41-3.55 25.45-1 10.07 1.34 17-1.5 25.63-.59 1.77-2 1.67-3.35 1.43-44.59-7.73-101.66-5.71-146.65-2.92-24.6.58-58.62-1.67-83 2.09-5.23.6-5.68.28-6.62-4.82-1.35-11.26 1.94-18.53.53-29.31-6.15-46.82-1.39-94.38-3.6-141.53-1.42 2.82-2.94 5.6-4.29 8.45-2.37 10.68-17.5 9.3-11.81 16.19 11.11 8 6.41 21.38 5.15 32.56-.25 3.15-1.35 6.27-.37 9.58.51 8.43-3.19 16.94-4.38 25.31-1.5 8-10.42 41.27-11.86 49.29-.57 3.17-.61 3-3.74 2.05-12.38-3.52-26.09-4.38-38.6-1.18-1.39.34-2.11 0-2.41-1.47-2-7.76.82-16.67-5.49-22.43a6.66 6.66 0 01-1.33-3.22c-2.23-11-6.07-22.12-5.72-33.31-1.91-63 2.6-126.93 26.19-186 13.61-35.44 24.56-73.32 48.07-103.67 27.32-18.2 60-23.76 90.46-34.78a3.13 3.13 0 012.72.43c5 5.55 11.46 8.41 18.56 9.66 19.19 2.43 41.29 5.56 58.65-4.87 2.85-1.27 4.2-6.53 7.87-5 29.12 10.5 61 14.41 87.44 31.59 15.94 14.59 21.63 38 30.45 57.2 27.81 67.49 58 137.4 51.05 212.08-1.19 18.66-.23 37.45-3.28 56-.49 4.66-5.21 7.09-5.56 11.78-1.22 5.28-2.08 10.65-2.91 16-.4 2.6-.41 2.82-3.08 2.32-12.48-2.65-25.26-5.48-37.8-1.58-8.34-.14-8.13-15.55-11.44-21.4-6.28-7.37-3.61-9-5.33-17.63-.9-9.7-4.68-20.27.79-29.27 2-3.53 1.86-7 .51-10.65-4.9-11.29-7.4-23.42-10.45-35.3-1.07-4.3-1.31-8.49 1.61-12.33 1.51-7.24-10.43-8.68-10.93-15.93z" fill="#bababa" stroke="#262521" stroke-linecap="round" stroke-linejoin="round" stroke-width="3"/><path d="M409.37 141.51c-8.82-19.21-14.51-42.61-30.45-57.2-22.86-14.88-49.87-19.81-75.61-27.68-4 3.8-1.23 53.64-54.81 53.64-50.05 0-54.42-44.5-54.95-54.31-26.94 8.66-56.55 15.45-80.33 31.32C89.71 117.63 78.76 155.51 65.15 191 41.56 250 37.05 313.94 39 377c-.35 11.19 3.49 22.28 5.72 33.31a6.66 6.66 0 001.28 3.17c6.31 5.76 24.77-10.48 54.72 4.08 1.44-8 5.88-22.37 7.38-30.34 1.19-8.37 4.89-16.88 4.38-25.31-1-3.31.12-6.43.37-9.58 1.26-11.18 6-24.61-5.15-32.56-5.69-6.88 9.44-5.51 11.81-16.19 1.35-2.85 2.87-5.63 4.29-8.45 2.21 47.15-2.31 97.12 3.84 143.94 63.85-6.91 229.69-3.92 240.32 5.49.87-9 2.74-16.47 3.55-25.45q.3-61.71.62-123.46l.41-.08c.5 7.25 12.44 8.69 10.93 15.93-2.92 3.84-2.68 8-1.61 12.33 3.05 11.88 5.55 24 10.45 35.3 1.35 3.61 1.5 7.12-.51 10.65-5.47 9-1.69 19.57-.79 29.27 1.72 8.67-.95 10.26 5.33 17.63 5.83-.6 39.86-13.6 55.23 4.65.35-4.69 5.07-7.12 5.56-11.78 3.05-18.51 2.09-37.3 3.28-56 6.96-74.64-23.23-144.55-51.04-212.04z" fill="url(#a)"/><path d="M372.14 295.65q-.27 61.74-.62 123.46c-.81 9-2.68 16.41-3.55 25.45-1 10.07 1.34 17-1.5 25.63-.59 1.77-2 1.67-3.35 1.43-44.59-7.73-101.66-5.71-146.65-2.92-24.6.58-58.62-1.67-83 2.09-5.23.6-5.68.28-6.62-4.82-1.35-11.26 1.94-18.53.53-29.31-6.15-46.82-1.39-94.38-3.6-141.53-1.42 2.82-2.94 5.6-4.29 8.45-2.37 10.68-17.5 9.3-11.81 16.19 11.11 8 6.41 21.38 5.15 32.56-.25 3.15-1.35 6.27-.37 9.58.51 8.43-3.19 16.94-4.38 25.31-1.5 8-10.42 41.27-11.86 49.29-.57 3.17-.61 3-3.74 2.05-12.38-3.52-26.09-4.38-38.6-1.18-1.39.34-2.11 0-2.41-1.47-2-7.76.82-16.67-5.49-22.43a6.66 6.66 0 01-1.33-3.22c-2.23-11-6.07-22.12-5.72-33.31-1.91-63 2.6-126.93 26.19-186 13.61-35.44 24.56-73.32 48.07-103.67 27.32-18.2 60-23.76 90.46-34.78a3.13 3.13 0 012.72.43c5 5.55 11.46 8.41 18.56 9.66 19.19 2.43 41.29 5.56 58.65-4.87 2.85-1.27 4.2-6.53 7.87-5 29.12 10.5 61 14.41 87.44 31.59 15.94 14.59 21.63 38 30.45 57.2 27.81 67.49 58 137.4 51.05 212.08-1.19 18.66-.23 37.45-3.28 56-.49 4.66-5.21 7.09-5.56 11.78-1.22 5.28-2.08 10.65-2.91 16-.4 2.6-.41 2.82-3.08 2.32-12.48-2.65-25.26-5.48-37.8-1.58-8.34-.14-8.13-15.55-11.44-21.4-6.28-7.37-3.61-9-5.33-17.63-.9-9.7-4.68-20.27.79-29.27 2-3.53 1.86-7 .51-10.65-4.9-11.29-7.4-23.42-10.45-35.3-1.07-4.3-1.31-8.49 1.61-12.33 1.51-7.24-10.43-8.68-10.93-15.93z" fill="none" stroke="#262521" stroke-linecap="round" stroke-linejoin="round" stroke-width="3"/><path d="M204.41 52.37s4 48.55 43.68 46.73 42.84-45.41 42.84-45.41l-1.61-.69S286 84.08 247.69 85.89 207 53 207 53" fill="#fff" stroke="#262521" stroke-linecap="round" stroke-linejoin="round" stroke-width="3"/><path d="M121.8 184.94s2.11 28.62 0 44.25.11 29.69.11 32.87 1.9 33.07 1.9 33.07M371.33 192.75s-1.25 73.86.81 102.9" fill="none" stroke="#262521" stroke-linecap="round" stroke-linejoin="round" stroke-width="3"/><path d="M193.55 60.08c2.77 14.3 8.71 50.26 54.25 50.26s52.09-37.75 54.2-49.93M244.5 102.26v8.01M246.5 102.26v8.01M248.5 102.26v8.01M250.5 102.26v8.01M256.58 101.8l1.84 7.8M258.52 101.34l1.85 7.8M260.47 100.88l1.85 7.8M262.42 100.42l1.84 7.79M269.25 97.9l4.1 6.88M270.96 96.88l4.11 6.87M272.68 95.85l4.11 6.88M274.4 94.83l4.11 6.87M280.26 90.14l5.97 5.33M281.59 88.65l5.97 5.33M282.92 87.16l5.98 5.33M284.25 85.66l5.98 5.34M287.67 79.83l7.32 3.25M288.48 78l7.32 3.25M289.29 76.18l7.32 3.24M290.1 74.35l7.32 3.24M292.16 67.16l7.81 1.78M292.61 65.21l7.81 1.78M293.05 63.26l7.81 1.78M293.5 61.31l7.81 1.78M239.28 101.8l-1.85 7.8M237.33 101.34l-1.84 7.8M235.39 100.88l-1.85 7.8M233.44 100.42l-1.85 7.79M226.61 97.9l-4.11 6.88M224.89 96.88l-4.11 6.87M223.18 95.85l-4.11 6.88M221.46 94.83l-4.11 6.87M215.6 90.14l-5.98 5.33M214.27 88.65l-5.98 5.33M212.94 87.16l-5.98 5.33M211.61 85.66L205.63 91M208.19 79.83l-7.32 3.25M207.38 78l-7.32 3.25M206.57 76.18l-7.32 3.24M205.76 74.35l-7.32 3.24M203.69 67.16l-7.81 1.78M203.25 65.21l-7.81 1.78M202.8 63.26l-7.81 1.78M202.36 61.31l-7.81 1.78" fill="none" stroke="#636363" stroke-linecap="round" stroke-linejoin="round"/><path fill="none" stroke="#8e8e8e" stroke-linecap="round" stroke-linejoin="round" stroke-width="4" d="M73.89 414.47v16.03M64.24 414.48l.99 16.01M84.38 414.49l-1.48 15.99M94.49 416.65l-4.14 15.61M55.35 415.86l2.04 15.94M424.91 414.43l-.09 16.34M414.8 414.47l1.81 16.26M435.39 414.45l-1.57 16.29M445 416.61l-3.73 15.92M404.97 415.95l3.73 15.99M247.31 441.59v20.46M258.37 441.59v20.46M269.43 441.59v20.46M280.49 441.59v20.46M291.56 441.59v20.46M302.62 441.59v20.46M313.68 441.59v20.46M324.74 441.59v20.46M169.87 441.59v21.96M180.93 441.59v21.46M192 441.59v21.46M203.06 442.59v20.46M137.11 443.61l1.15 20.43M148.05 442.11l.89 21.42M158.81 441.59v21.96M214.12 442.59v20.46M225.18 441.59v20.46M236.24 441.59v20.46M336.17 442.6l-.73 20.45M347.48 443.61l-1.23 20.42M358.34 444.6l-.82 20.44"/><path d="M172.34 58.38s.66 78.72 76.16 78.72 65.08-81.36 65.08-81.36l45.85 13.2s15.37 386.24 12.09 388.43-252.45 4-250.63-3.67 12.56-379.34 12.56-379.34z" fill="#377566" stroke="#262521" stroke-linecap="round" stroke-linejoin="round" stroke-width="3"/><path d="M136.28 354.79s106.34 13.63 220.82 0M136.28 364.46s106.34 13.63 220.82 0M248.42 360.84l.5 83.22" fill="none" stroke="#215145" stroke-linecap="round" stroke-linejoin="round"/><path stroke-width="3" stroke="#262521" stroke-linecap="round" stroke-linejoin="round" fill="#ffc802" d="M274.4 167.32h57.09v37.17H274.4z"/><path stroke-width="3" stroke="#262521" stroke-linecap="round" stroke-linejoin="round" fill="#fff" d="M274.4 185.59h57.09v10.13H274.4z"/></svg>
